src/assets/obucheniye/icons/viber.svg

<svg fill="none" height="40" viewBox="0 0 40 40" width="40" xmlns="http://www.w3.org/2000/svg"><path d="m37 0h-34c-1.65685 0-3 1.34315-3 3v34c0 1.6569 1.34315 3 3 3h34c1.6569 0 3-1.3431 3-3v-34c0-1.65685-1.3431-3-3-3z" fill="#7d3daf"/><g fill="#fff"><path d="m32.6512 12.8935-.0079-.0316c-.639-2.5831-3.5197-5.35488-6.1651-5.93154l-.0298-.00614c-4.2789-.81628-8.6174-.81628-12.8953 0l-.0308.00614c-2.6445.57666-5.52516 3.34844-6.16501 5.93154l-.00702.0316c-.78994 3.6074-.78994 7.2657 0 10.8731l.00702.0316c.61255 2.4729 3.27871 5.1173 5.82541 5.8446v2.8835c0 1.0435 1.2718 1.5561 1.995.8031l2.9215-3.0368c.6336.0354 1.2675.0552 1.9015.0552 2.1539 0 4.3087-.2037 6.4477-.6118l.0298-.0061c2.6454-.5767 5.5261-3.3485 6.1651-5.9316l.0079-.0316c.7899-3.6075.7899-7.2658 0-10.8732zm-2.3119 10.35c-.4266 1.6852-2.6139 3.7803-4.3517 4.1674-2.2751.4326-4.5682.6175-6.8591.5541-.0455-.0013-.0893.0164-.1211.049-.3251.3337-2.1331 2.1897-2.1331 2.1897l-2.2689 2.3286c-.1659.1729-.4573.0553-.4573-.1834v-4.7767c0-.0789-.0563-.146-.1338-.1612-.0005 0-.0009-.0001-.0013-.0002-1.7379-.3871-3.9243-2.4822-4.35172-4.1674-.71095-3.2607-.71095-6.5662 0-9.8268.42742-1.6853 2.61382-3.78035 4.35172-4.16742 3.9734-.75571 8.0021-.75571 11.9746 0 1.7387.38707 3.9251 2.48212 4.3517 4.16742.7117 3.2607.7117 6.5662 0 9.8269z"/><path d="m23.7806 25.4487c-.2671-.0811-.5218-.1356-.7582-.2337-2.4502-1.0166-4.7052-2.3281-6.4915-4.3385-1.0157-1.1432-1.8108-2.4339-2.4828-3.7998-.3187-.6477-.5873-1.3208-.8611-1.9896-.2496-.6098.1181-1.2398.5052-1.6993.3633-.4312.8308-.7612 1.3371-1.0045.3951-.1898.7849-.0803 1.0735.2546.6239.7241 1.1969 1.4852 1.661 2.3246.2853.5163.207 1.1473-.3101 1.4987-.1257.0854-.2403.1856-.3573.2821-.1027.0845-.1994.1699-.2698.2844-.1286.2094-.1348.4564-.0519.6841.6377 1.7526 1.7126 3.1154 3.4767 3.8494.2822.1175.5657.2542.8909.2163.5447-.0636.721-.661 1.1026-.9731.373-.305.8497-.3091 1.2515-.0548.4019.2544.7916.5274 1.1788.8034.3801.2708.7586.5358 1.1093.8446.3371.2969.4532.6864.2634 1.0894-.3476.738-.8533 1.3519-1.5829 1.7438-.206.1105-.452.1464-.6844.2179.2324-.0715-.2671-.0812 0 0z"/><path d="m20.0075 11.5394c3.205.0898 5.8373 2.2168 6.4014 5.3853.0961.5399.1304 1.0919.1731 1.6398.018.2305-.1125.4495-.3613.4525-.2569.0031-.3725-.2119-.3891-.4423-.033-.456-.056-.9141-.1188-1.3664-.3318-2.3875-2.2355-4.3627-4.6119-4.7865-.3576-.0638-.7236-.0806-1.0858-.1186-.229-.024-.529-.0379-.5797-.3226-.0426-.2386.1589-.4286.3861-.4408.0618-.0035.1239-.0006.186-.0004-.0621-.0002 3.205.0898 0 0z"/><path d="m24.8773 17.8533c-.0052.04-.0081.1341-.0315.2228-.085.3217-.5729.362-.6852.0373-.0333-.0964-.0383-.206-.0385-.3098-.0011-.6788-.1486-1.3569-.491-1.9475-.3518-.6071-.8894-1.1174-1.52-1.4261-.3813-.1867-.7936-.3028-1.2115-.3719-.1826-.0302-.3672-.0486-.5507-.0741-.2225-.0309-.3412-.1726-.3307-.3918.0099-.2054.1599-.3531.3838-.3405.7355.0418 1.4459.2008 2.0998.547 1.3297.7042 2.0893 1.8157 2.311 3.2999.01.0673.0262.1339.0313.2014.0125.1667.0204.3335.0332.5533-.0128-.2198-.0052.04 0 0z"/><path d="m22.8833 17.7758c-.2681.0048-.4116-.1436-.4393-.3895-.0192-.1714-.0344-.3451-.0753-.5118-.0806-.3285-.2551-.6329-.5314-.8341-.1305-.0951-.2783-.1643-.4331-.209-.1967-.0568-.4009-.0412-.5972-.0893-.2131-.0522-.331-.2247-.2974-.4247.0304-.1819.2074-.324.4062-.3096 1.2426.0897 2.1307.7321 2.2574 2.1949.009.1033.0195.2124-.0034.3111-.0392.169-.1644.2537-.2865.262.1221-.0083-.2681.0048 0 0z"/></g></svg>

<svg width="40" height="40" viewBox="0 0 40 40" fill="none" xmlns="http://www.w3.org/2000/svg">
<path d="M37 0H3C1.34315 0 0 1.34315 0 3V37C0 38.6569 1.34315 40 3 40H37C38.6569 40 40 38.6569 40 37V3C40 1.34315 38.6569 0 37 0Z" fill="#7D3DAF"/>
<path d="M32.6512 12.8935L32.6433 12.8619C32.0043 10.2788 29.1236 7.50702 26.4782 6.93036L26.4484 6.92422C22.1695 6.10794 17.831 6.10794 13.5531 6.92422L13.5223 6.93036C10.8778 7.50702 7.99714 10.2788 7.35729 12.8619L7.35027 12.8935C6.56033 16.5009 6.56033 20.1592 7.35027 23.7666L7.35729 23.7982C7.96984 26.2711 10.636 28.9155 13.1827 29.6428V32.5263C13.1827 33.5698 14.4545 34.0824 15.1777 33.3294L18.0992 30.2926C18.7328 30.328 19.3667 30.3478 20.0007 30.3478C22.1546 30.3478 24.3094 30.1441 26.4484 29.736L26.4782 29.7299C29.1236 29.1532 32.0043 26.3814 32.6433 23.7983L32.6512 23.7667C33.4411 20.1592 33.4411 16.5009 32.6512 12.8935ZM30.3393 23.2435C29.9127 24.9287 27.7254 27.0238 25.9876 27.4109C23.7125 27.8435 21.4194 28.0284 19.1285 27.965C19.083 27.9637 19.0392 27.9814 19.0074 28.014C18.6823 28.3477 16.8743 30.2037 16.8743 30.2037L14.6054 32.5323C14.4395 32.7052 14.1481 32.5876 14.1481 32.3489V27.5722C14.1481 27.4933 14.0918 27.4262 14.0143 27.411C14.0138 27.411 14.0134 27.4109 14.013 27.4108C12.2751 27.0237 10.0887 24.9286 9.66128 23.2434C8.95033 19.9827 8.95033 16.6772 9.66128 13.4166C10.0887 11.7313 12.2751 9.63625 14.013 9.24918C17.9864 8.49347 22.0151 8.49347 25.9876 9.24918C27.7263 9.63625 29.9127 11.7313 30.3393 13.4166C31.051 16.6773 31.051 19.9828 30.3393 23.2435Z" fill="white"/>
<path d="M23.7806 25.4487C23.5135 25.3676 23.2588 25.3131 23.0224 25.215C20.5722 24.1984 18.3172 22.8869 16.5309 20.8765C15.5152 19.7333 14.7201 18.4426 14.0481 17.0767C13.7294 16.429 13.4608 15.7559 13.187 15.0871C12.9374 14.4773 13.3051 13.8473 13.6922 13.3878C14.0555 12.9566 14.523 12.6266 15.0293 12.3833C15.4244 12.1935 15.8142 12.303 16.1028 12.6379C16.7267 13.362 17.2997 14.1231 17.7638 14.9625C18.0491 15.4788 17.9708 16.1098 17.4537 16.4612C17.328 16.5466 17.2134 16.6468 17.0964 16.7433C16.9937 16.8278 16.897 16.9132 16.8266 17.0277C16.698 17.2371 16.6918 17.4841 16.7747 17.7118C17.4124 19.4644 18.4873 20.8272 20.2514 21.5612C20.5336 21.6787 20.8171 21.8154 21.1423 21.7775C21.687 21.7139 21.8633 21.1165 22.2449 20.8044C22.6179 20.4994 23.0946 20.4953 23.4964 20.7496C23.8983 21.004 24.288 21.277 24.6752 21.553C25.0553 21.8238 25.4338 22.0888 25.7845 22.3976C26.1216 22.6945 26.2377 23.084 26.0479 23.487C25.7003 24.225 25.1946 24.8389 24.465 25.2308C24.259 25.3413 24.013 25.3772 23.7806 25.4487C24.013 25.3772 23.5135 25.3675 23.7806 25.4487Z" fill="white"/>
<path d="M20.0075 11.5394C23.2125 11.6292 25.8448 13.7562 26.4089 16.9247C26.505 17.4646 26.5393 18.0166 26.582 18.5645C26.6 18.795 26.4695 19.014 26.2207 19.017C25.9638 19.0201 25.8482 18.8051 25.8316 18.5747C25.7986 18.1187 25.7756 17.6606 25.7128 17.2083C25.381 14.8208 23.4773 12.8456 21.1009 12.4218C20.7433 12.358 20.3773 12.3412 20.0151 12.3032C19.7861 12.2792 19.4861 12.2653 19.4354 11.9806C19.3928 11.742 19.5943 11.552 19.8215 11.5398C19.8833 11.5363 19.9454 11.5392 20.0075 11.5394C19.9454 11.5392 23.2125 11.6292 20.0075 11.5394Z" fill="white"/>
<path d="M24.8773 17.8533C24.8721 17.8933 24.8692 17.9874 24.8458 18.0761C24.7608 18.3978 24.2729 18.4381 24.1606 18.1134C24.1273 18.017 24.1223 17.9074 24.1221 17.8036C24.121 17.1248 23.9735 16.4467 23.6311 15.8561C23.2793 15.249 22.7417 14.7387 22.1111 14.43C21.7298 14.2433 21.3175 14.1272 20.8996 14.0581C20.717 14.0279 20.5324 14.0095 20.3489 13.984C20.1264 13.9531 20.0077 13.8114 20.0182 13.5922C20.0281 13.3868 20.1781 13.2391 20.402 13.2517C21.1375 13.2935 21.8479 13.4525 22.5018 13.7987C23.8315 14.5029 24.5911 15.6144 24.8128 17.0986C24.8228 17.1659 24.839 17.2325 24.8441 17.3C24.8566 17.4667 24.8645 17.6335 24.8773 17.8533C24.8645 17.6335 24.8721 17.8933 24.8773 17.8533Z" fill="white"/>
<path d="M22.8833 17.7758C22.6152 17.7806 22.4717 17.6322 22.444 17.3863C22.4248 17.2149 22.4096 17.0412 22.3687 16.8745C22.2881 16.546 22.1136 16.2416 21.8373 16.0404C21.7068 15.9453 21.559 15.8761 21.4042 15.8314C21.2075 15.7746 21.0033 15.7902 20.807 15.7421C20.5939 15.6899 20.476 15.5174 20.5096 15.3174C20.54 15.1355 20.717 14.9934 20.9158 15.0078C22.1584 15.0975 23.0465 15.7399 23.1732 17.2027C23.1822 17.306 23.1927 17.4151 23.1698 17.5138C23.1306 17.6828 23.0054 17.7675 22.8833 17.7758C23.0054 17.7675 22.6152 17.7806 22.8833 17.7758Z" fill="white"/>
</svg>
